X: 28482
T: Muñeira De Ribeseya
R: jig
M: 6/8
K: Bminor
d2B Bcd|ecc cde|fed edc|def cBA|
d2B Bcd|ecc cde|fed edc|B3 ~f3:|
|:dcB def|cBA ABc|~B3 ~f3|def edc|
dcB def|cBA ABc|~B3 ~f3|def ~e3:|

